X: 143
T: Lady Montgomeries Reel
R: reel
M: C
L: 1/8
Z: 2012 John Chambers <jc:trillian.mit.edu>
B: J. Anderson "Budget of Strathspeys, Reels and Country Dances" (Early 1800s) p.14 #3
F: http://imslp.org/wiki/Anderson%27s_Budget_of_Strathspeys,_Reels_and_Country_Dances_(Various)
K: C
|:\
c2(cG) EFGE |c2(cA) Bcde | c2(cG) EFGE | Dddc Bcde :|
c<cgc (ec)g2 | c<c gc efga | c<cgc ecgc | (fe).d.c (Bc).d.e |
c<cgc (ec)g2 | c<c gf efga | (ge).f.d (ec).d.B | cAGE Dddd |]

%%sep 2 1 500
%%sep 1 1 500

